polaris-icons/icons/new-icons/NatureMajor.svg

<svg width="20" height="20" viewBox="0 0 20 20" fill="none" xmlns="http://www.w3.org/2000/svg">
<path fill-rule="evenodd" clip-rule="evenodd" d="M7.75 3.5C5.40279 3.5 3.5 5.40279 3.5 7.75C3.5 8.57565 3.73605 9.34741 4.14392 10C3.73605 10.6526 3.5 11.4243 3.5 12.25C3.5 14.5972 5.40279 16.5 7.75 16.5C8.57566 16.5 9.34741 16.264 10 15.8561C10.6526 16.264 11.4243 16.5 12.25 16.5C14.5972 16.5 16.5 14.5972 16.5 12.25C16.5 11.4243 16.264 10.6526 15.8561 10C16.264 9.34741 16.5 8.57566 16.5 7.75C16.5 5.40279 14.5972 3.5 12.25 3.5C11.4243 3.5 10.6526 3.73605 10 4.14392C9.34741 3.73605 8.57565 3.5 7.75 3.5ZM5 7.75C5 6.23122 6.23122 5 7.75 5C8.30405 5 8.81866 5.1632 9.25 5.44461V7.35352C8.33416 7.61255 7.61255 8.33416 7.35352 9.25H5.44461C5.1632 8.81866 5 8.30405 5 7.75ZM5.44461 10.75C5.1632 11.1813 5 11.696 5 12.25C5 13.7688 6.23122 15 7.75 15C8.30405 15 8.81866 14.8368 9.25 14.5554V12.6465C8.33416 12.3875 7.61255 11.6658 7.35352 10.75H5.44461ZM8.75 10C8.75 10.6904 9.30964 11.25 10 11.25C10.6904 11.25 11.25 10.6904 11.25 10C11.25 9.30964 10.6904 8.75 10 8.75C9.30964 8.75 8.75 9.30964 8.75 10ZM10.75 14.5554V12.6465C11.6658 12.3875 12.3875 11.6658 12.6465 10.75H14.5554C14.8368 11.1813 15 11.696 15 12.25C15 13.7688 13.7688 15 12.25 15C11.696 15 11.1813 14.8368 10.75 14.5554ZM14.5554 9.25C14.8368 8.81866 15 8.30405 15 7.75C15 6.23122 13.7688 5 12.25 5C11.696 5 11.1813 5.1632 10.75 5.44461V7.35352C11.6658 7.61255 12.3875 8.33416 12.6465 9.25H14.5554Z" fill="#4A4A4A"/>
</svg>

<svg viewBox="0 0 20 20" xmlns="http://www.w3.org/2000/svg"><path fill-rule="evenodd" d="M7.75 3.5a4.25 4.25 0 0 0-3.606 6.5 4.25 4.25 0 0 0 5.856 5.856 4.25 4.25 0 0 0 5.856-5.856 4.25 4.25 0 0 0-5.856-5.856 4.233 4.233 0 0 0-2.25-.644Zm-2.75 4.25a2.75 2.75 0 0 1 4.25-2.305v1.909a2.756 2.756 0 0 0-1.896 1.896h-1.91a2.734 2.734 0 0 1-.444-1.5Zm.445 3a2.75 2.75 0 0 0 3.805 3.805v-1.909a2.756 2.756 0 0 1-1.896-1.896h-1.91Zm3.305-.75a1.25 1.25 0 1 0 2.5 0 1.25 1.25 0 0 0-2.5 0Zm2 4.555v-1.909a2.756 2.756 0 0 0 1.896-1.896h1.91a2.75 2.75 0 0 1-3.805 3.805Zm3.805-5.305a2.75 2.75 0 0 0-3.805-3.805v1.909c.916.259 1.637.98 1.896 1.896h1.91Z" fill="#5C5F62"/></svg>
